X:1
T:Title
%%score { ( 1 2 ) | ( 3 4 ) }
L:1/8
M:6/8
K:G
V:1 treble nm="Grand Piano"
V:2 treble 
V:3 bass 
V:4 bass 
V:1
 z3 z2[Q:1/4=100] [B,G]/A/ | [DGB]2 [DGB] [DFc][DFc][DFc] | [DGd]3 [DG]2 [=Fd] | %3
 [Ec]2 [Ec] [EA][EA][EA] | B3 A2 [DFA] | [DGB]2 [DGB] [DFc][DFc][DFc] | [DGd]3 [B,G]2 [B,Gd] | %7
 [E^c]2 [Ec] [Gc][GB][Gc] | [Fd]3- [Fd]2 [Fd] | [Fd]2 [Fd] [G^c][Gc][Gc] | c3 B2 B | %11
 [FA]2 [FA] [EG][EG][EA] | [^DB]3- [DB]2 [=DB] | [DGB]2 [DGB] [DFc][DFc][DFc] | %14
 [DGd]3 [DG]2 [=Fd] | [Ec]2 [EA] B<BA |[M:5/8] [G,B,G]-[G,B,G]- [G,B,G]3 |[M:1/8] D/-[DA]/ | %18
[M:3/4] [DGB]2 [DFc][Gd] [Gd][=Fd] | [Ec]3 [CE]2 [DB] | [DA]2 [Fd][G^c] [GB][Gc] | %21
[M:5/8] [Fd]-[Fd]- [Fd]3 |[M:1/8] [Fc] |[M:3/4] [GB]2 [GB][Gd] [Gd][=Fd] | [Ec]3 [EA]2 [EA] | %25
 B3 B/c/- cF |[M:5/8] [B,G]-[B,G]- [B,G]3 |] %27
V:2
 z3 z2 D | x6 | x6 | x6 | x6 | x6 | x6 | x6 | x6 | x6 | x6 | x6 | x6 | x6 | x6 | x6 |[M:5/8] x5 | %17
[M:1/8] [B,G]/ z/ |[M:3/4] x6 | x6 | x6 |[M:5/8] x5 |[M:1/8] x |[M:3/4] x6 | x6 | x6 |[M:5/8] x5 |] %27
V:3
 z3 z z z/ C/ | G,,2 G,, A,,A,,A,, | B,,3 B,,2 [B,,G,] | [C,G,]2 [C,G,] [^C,A,][C,A,][C,A,] | %4
 G,3 z3 | G,,2 G,, A,,A,,A,, | B,,3 G,,2 G,, | [A,,A,]2 [A,,A,] [A,,A,][A,,A,][A,,A,] | %8
 [D,A,]3- [D,A,]2 [D,A,] | [D,A,]2 [D,A,] [E,A,][E,A,][E,A,] | [F,A,D]3[K:treble] [G,D]2 [G,DG] | %11
 [D,C]2 [D,C] [E,B,][D,B,][C,E,] | [B,,F,]3- [B,,F,]2 [G,,G,] | G,,2 G,, A,,A,,A,, | %14
 B,,3 B,,2 [B,,G,] | [C,G,]2 [^C,G,] [D,G,D]<[D,G,D][D,F,C] |[M:5/8] G,,-G,,- G,,3 |[M:1/8] z/ C/ | %18
[M:3/4] G,,2 A,,[B,,G,] [B,,G,][C,G,] | [C,G,]3 [C,G,]2 [G,,G,] | %20
 [A,,F,]2 [A,,A,][A,,A,] [A,,A,][A,,A,] |[M:5/8] [D,A,]-[D,A,]- [D,A,]3 |[M:1/8] [D,D] | %23
[M:3/4] [G,D]2 [G,D][B,,G,] [B,,G,][B,,G,] | [C,G,]3 [^C,A,]2 [C,A,] | %25
 [D,G,D]3 [D,G,D]/[D,F,D]/- [D,F,D][D,A,C] |[M:5/8] [G,,G,]-[G,,G,]- [G,,G,]3 |] %27
V:4
 z3 z2 G,, | x6 | x6 | x6 | [D,D]3- [D,F,D]2 D, | x6 | x6 | x6 | x6 | x6 | x3[K:treble] x3 | x6 | %12
 x6 | x6 | x6 | x6 |[M:5/8] x5 |[M:1/8] G,, |[M:3/4] x6 | x6 | x6 |[M:5/8] x5 |[M:1/8] x | %23
[M:3/4] x6 | x6 | x6 |[M:5/8] x5 |] %27

